X:508
T:Piper On Horseback, The
R:reel
Z:id:hn-reel-508
M:C|
K:D
D3d cAAB|cded cAGE|D3d cAAB|cAGE EDDE|
(3EFG AB =c2AB|^cded cAAg|fdec dcAB|cAGE EDD2:|
|:~d3e ~f3g|afge dcAG|Adde f2ed|cAGE EDD2|
dcde fefg|afge defg|afge fded|cAGE EDD2:|
P:variations
|:D3d cAAB|cAdB cAGE|D2dB cAAB|cAGE EDD2|
(3EFG AB =cAAB|^cAdB cAAg|faec dcAB|cAGE EDD2:|
|:Adde fefg|afge dcAG|Adde fded|cAGE EDD2|
Adde fd (3efg|afge defg|afge f2ed|cAGE EDD2:|

